X:1
T:Take a Drink on Me
M:4/4
L:1/8
K:A
 E2| A A2 A c2 Bc| A A2 A A2 z E| GG GG GG AA| DD D2 F4| E4 G4| EE EE D B,- B,2|\
 A,8| z4 z2 EE| A A3 c2 cc| B B3 A4| F2 F2 FF FF| D D3 F4| E4 G4| EE EE D B,3|\
 A,8|
